X: 8
T: The Trip To Pakistan
R: reel
M: 4/4
L: 1/8
K: Bmin
|: BdfB d3 f | e3 d cdec | BdfB d3 f | ecAB cBBA :|
|: BdfB g3 e | f3 f fedc|BdfB g3 e |fedf ~e3d :|
|: cdfc dfcd | BcdB cdBc | AceA ceAe | edcd ~AB3 :|


Tune 112	Setting 12698

